X: 11
T: The Broken Pledge
R: reel
M: 4/4
L: 1/8
K: Edor
edBA BE~E2|dBAG FDDF|EFGA Beed|B2Ac Begf |
edBA ~B3c|dBAG FDDF|EFGA Beed|B2AF FE E2:|
edBA Bdef|g2eg fdd2|dAFA d3e|f2eg fbaf|
edBA Bdef|g2eg fdBA|~G3A Beed|B2AF FE E2:|


Tune 1423	Setting 1423

